X:1
T:Hor che fatto
T:Hor che fatto
T:Domenico Obizzi
T:Arietta
T:Source : Madrigali et arie a voce sola---Libro I ---Venetia---A.Vincenti---1627. Editor : André Vierendeels (26/02/16).
T:Notes : Original clefs : C1, F4 Editorial accidentals above the staff Notation in original print : "Alfabeto d'ariette per la Chitarra alla Spagnola", realised by the editor Note values have been halved in 3-beat measures Dotted brackets indicate black notes
T:©
T:©
C:Domenico Obizzi
Z:©
%%score 1 { ( 2 3 ) | 4 }
L:1/8
Q:1/4=95
M:4/4
K:F
V:1 treble nm="Soprano" snm="S"
V:2 treble nm="MusicXML Part"
V:3 treble 
V:4 bass 
V:1
 G3 A B2 BA | c4 c3 c | A2 c4 FG | G4 F4 | F3 E G2 FE | D4 C4 | c3 B d2 cB | A4 G4 | %8
w: Hor che fat- to par-|ti- ta, da|me l'a- ni- ma|mi- a|mi- se- ro che piu|si- a,|mi- se- ra che piu|si- a,|
w: For- se quel dol- ce'al|Di- o, che|pri- ma che par-|ti- te,|lan- gui- det- ta mi|dis- se,|lan- gui- det- ta mi|dis- se,|
w: Mà se'l mio vi- vo|fo- co, por-|to lun- ge'il suo'ar-|do- re,|ond' è che sem- pre'il|co- re,|ond' è che sem- pre'il|co- re,|
w: For- se quel ca- ro|sguar- do, che'in|me gi- ro par-|ten- do,|so- spi- ran- do'e pian-|gen- do,|so- spi- ran- do'e pian-|gen- do,|
w: O pu- re'à te s'a-|scri- ve, ar-|mor di cio la|pal- ma,|se sen- za fo- co'e|al- ma,|se sen- za fo- co'e|al- ma,|
[M:3/4] z2 G2 G2 | G2 F2 E2 | F3 E G2 | F2 E4 | D2 d2 d2 | d2 c2 B2 | cB cd c2 | z2 c2 c2 | %16
w: che'l ca|da ve- ro|mio so- sten-|ga'in vi-|ta, che'l ca|da ve- ro|mi _ _ _ o,|che'l ca|
w: e fat-|to'al- ma'im- mor-|tal del pet-|to mi-|o, e fat-|to'al- ma'im- mor-|tal _ _ _ _|e fat|
w: si con-|su- ma'e si|strug- ge'à po-|co'à po-|co, si con-|su- ma'e si|strug- * * * ge,|si con-|
w: nu- tre|la fiam- ma'on-|de'an- co'a- vam-|po'e ar-|do, nu- tre|la fiam- ma'on-|de, _ _ _ _|nu- tre|
w: un co-|re'in- na- mo-|ra- to'a- vam-|pa'e vi-|ve, un co-|re'in- na- mo-|ra- * * * to,|un co-|
 c2 B2 A2 | B3 A c2 | B2 A4 | G6 |] %20
w: da ve- ro|mio so- sten-|ga'in vi-|ta.|
w: tto'al- ma'im- mor-|tal del pet-|to mi-|o.|
w: su- ma'e si|strug- ge'à po-|co'à po-|co.|
w: la fiam- ma'on-|de'an- co'a- vam-|po'e ar-|do.|
w: re'in- na- mo-|ra- to'a- vam-|pa'e vi-|ve.|
V:2
 B8 | A6 c2 | c6 F2 | c4 A4 | A4 G2 c2 | =B4 c4 | G4 B4 | A4 B4 |[M:3/4] B6 | G6 | A4 =B2- | %11
 B2 ^c4 | d6 | B2 c2 d2 | A6 | c6 | A6 | B4 G2 | B2 A4 | =B6 |] %20
V:3
 D8 | F6 A2 | F4 E2 D2 | G4 C4 | F4 E2 A2 | G4 E4 | E4 D4 | ^F4 D4 |[M:3/4] D6 | D6 | F4 G2 | %11
 F2 E4 | A4 F2 | F6 | D6 | D6 | F6 | D4 E2 | G4 ^F2 | G6 |] %20
V:4
 G,,4 G,,4 | F,,4 F,,4 | F,,4 A,,2 B,,2 | C,4 F,,4 | F,,4 C,2 F,,2 | G,,4 C,4 | C,4 G,,4 | %7
 D,4 G,,4 |[M:3/4] G,,4 G,,2 | G,,4 A,,2 | D,4 G,,2- | G,,2 A,,4 | D,4 D,2 | B,,4 B,,2 | %14
 F,,4 F,,2 | F,,4 F,,2 | F,,4 F,,2 | G,,4 C,2- | C,2 D,4 | G,,6 |] %20

